static/img/kroki/d015ce273dae29f4a6a7258505ad8852.svg

<?xml version="1.0" encoding="us-ascii" standalone="no"?><svg xmlns="http://www.w3.org/2000/svg" xmlns:xlink="http://www.w3.org/1999/xlink" contentStyleType="text/css" height="152px" preserveAspectRatio="none" style="width:163px;height:152px;" version="1.1" viewBox="0 0 163 152" width="163px" zoomAndPan="magnify"><defs/><g><!--class gcp_network--><g id="elem_gcp_network"><rect codeLine="22" fill="#3D176E" height="39.7891" id="gcp_network" rx="2.5" ry="2.5" style="stroke:#000D19;stroke-width:0.5;" width="149" x="7" y="7"/><ellipse cx="22" cy="26.8945" fill="#ADD1B2" rx="11" ry="11" style="stroke:#181818;stroke-width:1.0;"/><path d="M24.9688,32.5352 Q24.3906,32.832 23.75,32.9727 Q23.1094,33.1289 22.4063,33.1289 Q19.9063,33.1289 18.5781,31.4883 Q17.2656,29.832 17.2656,26.707 Q17.2656,23.582 18.5781,21.9258 Q19.9063,20.2695 22.4063,20.2695 Q23.1094,20.2695 23.75,20.4258 Q24.4063,20.582 24.9688,20.8789 L24.9688,23.5977 Q24.3438,23.0195 23.75,22.7539 Q23.1563,22.4727 22.5313,22.4727 Q21.1875,22.4727 20.5,23.5508 Q19.8125,24.6133 19.8125,26.707 Q19.8125,28.8008 20.5,29.8789 Q21.1875,30.9414 22.5313,30.9414 Q23.1563,30.9414 23.75,30.6758 Q24.3438,30.3945 24.9688,29.8164 L24.9688,32.5352 Z " fill="#000000"/><text fill="#D9B8FF" font-family="Helvetica" font-size="17" lengthAdjust="spacing" textLength="107" x="41" y="32.7798">gcp_network</text></g><!--class gcp_route--><g id="elem_gcp_route"><rect codeLine="24" fill="#3D176E" height="39.7891" id="gcp_route" rx="2.5" ry="2.5" style="stroke:#000D19;stroke-width:0.5;" width="124" x="19.5" y="106.79"/><ellipse cx="34.5" cy="126.6845" fill="#ADD1B2" rx="11" ry="11" style="stroke:#181818;stroke-width:1.0;"/><path d="M37.4688,132.3252 Q36.8906,132.622 36.25,132.7627 Q35.6094,132.9189 34.9063,132.9189 Q32.4063,132.9189 31.0781,131.2783 Q29.7656,129.622 29.7656,126.497 Q29.7656,123.372 31.0781,121.7158 Q32.4063,120.0595 34.9063,120.0595 Q35.6094,120.0595 36.25,120.2158 Q36.9063,120.372 37.4688,120.6689 L37.4688,123.3877 Q36.8438,122.8095 36.25,122.5439 Q35.6563,122.2627 35.0313,122.2627 Q33.6875,122.2627 33,123.3408 Q32.3125,124.4033 32.3125,126.497 Q32.3125,128.5908 33,129.6689 Q33.6875,130.7314 35.0313,130.7314 Q35.6563,130.7314 36.25,130.4658 Q36.8438,130.1845 37.4688,129.6064 L37.4688,132.3252 Z " fill="#000000"/><text fill="#D9B8FF" font-family="Helvetica" font-size="17" lengthAdjust="spacing" textLength="82" x="53.5" y="132.5698">gcp_route</text></g><!--link gcp_network to gcp_route--><g id="link_gcp_network_gcp_route"><path codeLine="26" d="M81.5,47.22 C81.5,62.49 81.5,83.92 81.5,100.53 " fill="none" id="gcp_network-to-gcp_route" style="stroke:#1A83AF;stroke-width:2.0;"/><polygon fill="#1A83AF" points="81.5,105.41,85.5,96.41,81.5,100.41,77.5,96.41,81.5,105.41" style="stroke:#1A83AF;stroke-width:2.0;"/></g><!--SRC=[XT1DRuCm30RWUtz59CwLOAW3BfCOKhLUgcdTRPgcG1o8W0Gvxb0txR-ljFl8O6slzfFujIibW47RqOwrqEQ0TcPhfJkEl6KfekapqnXadfHSXj6ukJIQBe8rRu7TGVCAf0e-5e-LAceDrh8hftNBYxf4izNY-3qXrtRV0asEoXfkRKg4AjyIE654aiTIZkNuKoyKGNGD4sPG07uHt_T5a8p9nL5dz_uH6_K6B72FjZO4avYJ4GTrDkKWd92JHR_x9pFUSo6KBjd2gJqSCw46_5FVL5oOVj2IDzOTOmaG3Eqwo2PRGH8B6VsBLwTmCLoEbKNtee5wWpLxdtqurVqJWaFDDVCdBqZZC5q-psz-sIS0]--></g></svg>

<svg xmlns="http://www.w3.org/2000/svg" width="163" height="152" preserveAspectRatio="none" style="width:163px;height:152px"><rect width="149" height="39.789" x="7" y="7" fill="#3D176E" rx="2.5" ry="2.5" style="stroke:#000d19;stroke-width:.5"/><circle cx="22" cy="26.895" r="11" fill="#ADD1B2" style="stroke:#181818;stroke-width:1"/><path d="M24.969 32.535q-.578.297-1.219.438-.64.156-1.344.156-2.5 0-3.828-1.64-1.312-1.657-1.312-4.782t1.312-4.781q1.328-1.656 3.828-1.656.703 0 1.344.156.656.156 1.219.453v2.719q-.625-.578-1.219-.844-.594-.281-1.219-.281-1.343 0-2.031 1.078-.688 1.062-.688 3.156 0 2.094.688 3.172.688 1.062 2.031 1.062.625 0 1.219-.265.594-.281 1.219-.86v2.72Z"/><text x="41" y="32.78" fill="#D9B8FF" font-family="Helvetica" font-size="17" textLength="107">gcp_network</text><rect width="124" height="39.789" x="19.5" y="106.79" fill="#3D176E" rx="2.5" ry="2.5" style="stroke:#000d19;stroke-width:.5"/><circle cx="34.5" cy="126.684" r="11" fill="#ADD1B2" style="stroke:#181818;stroke-width:1"/><path d="M37.469 132.325q-.578.297-1.219.438-.64.156-1.344.156-2.5 0-3.828-1.64-1.312-1.657-1.312-4.782t1.312-4.781q1.328-1.656 3.828-1.656.703 0 1.344.156.656.156 1.219.453v2.719q-.625-.579-1.219-.844-.594-.281-1.219-.281-1.343 0-2.031 1.078-.688 1.062-.688 3.156 0 2.094.688 3.172.688 1.062 2.031 1.062.625 0 1.219-.265.594-.281 1.219-.86v2.72Z"/><text x="53.5" y="132.57" fill="#D9B8FF" font-family="Helvetica" font-size="17" textLength="82">gcp_route</text><path fill="none" d="M81.5 47.22v53.31" style="stroke:#1a83af;stroke-width:2"/><path fill="#1A83AF" d="m81.5 105.41 4-9-4 4-4-4 4 9z" style="stroke:#1a83af;stroke-width:2"/></svg>
